public/img/psychology/b7-4.svg

<?xml version="1.0" encoding="UTF-8"?> <svg xmlns="http://www.w3.org/2000/svg" width="144" height="144" viewBox="0 0 144 144" fill="none"> <mask id="path-1-inside-1_208_455" fill="white"> <path fill-rule="evenodd" clip-rule="evenodd" d="M72 0C56.536 0 44 12.536 44 28V44H28C12.536 44 0 56.536 0 72C0 87.464 12.536 100 28 100H44V116C44 131.464 56.536 144 72 144C87.464 144 100 131.464 100 116V100H116C131.464 100 144 87.464 144 72C144 56.536 131.464 44 116 44H100V28C100 12.536 87.464 0 72 0Z"></path> </mask> <path d="M44 44V45H45V44H44ZM44 100H45V99H44V100ZM100 100V99H99V100H100ZM116 44V45V44ZM100 44H99V45H100V44ZM45 28C45 13.0883 57.0883 1 72 1V-1C55.9837 -1 43 11.9837 43 28H45ZM45 44V28H43V44H45ZM28 45H44V43H28V45ZM1 72C1 57.0883 13.0883 45 28 45V43C11.9837 43 -1 55.9837 -1 72H1ZM28 99C13.0883 99 1 86.9117 1 72H-1C-1 88.0163 11.9837 101 28 101V99ZM44 99H28V101H44V99ZM45 116V100H43V116H45ZM72 143C57.0883 143 45 130.912 45 116H43C43 132.016 55.9837 145 72 145V143ZM99 116C99 130.912 86.9117 143 72 143V145C88.0163 145 101 132.016 101 116H99ZM99 100V116H101V100H99ZM116 99H100V101H116V99ZM143 72C143 86.9117 130.912 99 116 99V101C132.016 101 145 88.0163 145 72H143ZM116 45C130.912 45 143 57.0883 143 72H145C145 55.9837 132.016 43 116 43V45ZM100 45H116V43H100V45ZM99 28V44H101V28H99ZM72 1C86.9117 1 99 13.0883 99 28H101C101 11.9837 88.0163 -1 72 -1V1Z" fill="#27B783" mask="url(#path-1-inside-1_208_455)"></path> <path d="M49.038 86.0814C42.8531 86.0814 37.8398 81.1308 37.8398 75.0214C37.8398 68.9116 42.853 63.9597 49.038 63.9597H98.3189C92.1327 63.9597 87.1172 68.9116 87.1172 75.0214C87.1178 81.1307 92.1334 86.0814 98.3198 86.0814H49.038Z" stroke="black" stroke-miterlimit="10" stroke-linecap="round" stroke-linejoin="round"></path> <path d="M98.3191 79.4443C102.647 79.4443 106.16 75.9789 106.16 71.7011C106.16 67.4252 102.647 63.9585 98.3191 63.9585C102.647 63.9585 106.16 67.4245 106.16 71.7011C106.16 75.9789 102.647 79.4443 98.3191 79.4443Z" stroke="black" stroke-miterlimit="10" stroke-linecap="round" stroke-linejoin="round"></path> <path d="M71.9982 63.9587C65.8157 63.9587 60.7991 68.9106 60.7991 75.0205C60.7997 81.1304 65.816 86.0813 71.9982 86.0813C65.8157 86.0813 60.7991 81.1307 60.7991 75.0214C60.7997 68.9115 65.816 63.9587 71.9982 63.9587V63.9587Z" stroke="black" stroke-miterlimit="10" stroke-linecap="round" stroke-linejoin="round"></path> <path d="M71.9983 57.321C71.9983 53.6549 68.9889 50.6839 65.2783 50.6858C61.5676 50.6858 58.562 53.6568 58.562 57.321C58.562 60.9864 61.5683 63.958 65.2783 63.958H71.9983V57.321Z" stroke="black" stroke-miterlimit="10" stroke-linecap="round" stroke-linejoin="round"></path> <path d="M78.7183 63.9579C82.432 63.9579 85.4383 60.9863 85.4383 57.3209C85.4383 53.6548 82.4289 50.6838 78.7183 50.6838C75.0071 50.6838 71.9983 53.6548 71.9983 57.3209V63.9579H78.7183Z" stroke="black" stroke-miterlimit="10" stroke-linecap="round" stroke-linejoin="round"></path> </svg>

<svg xmlns="http://www.w3.org/2000/svg" width="144" height="144" fill="none"><mask id="a" fill="#fff"><path fill-rule="evenodd" clip-rule="evenodd" d="M72 0C56.536 0 44 12.536 44 28v16H28C12.536 44 0 56.536 0 72s12.536 28 28 28h16v16c0 15.464 12.536 28 28 28s28-12.536 28-28v-16h16c15.464 0 28-12.536 28-28s-12.536-28-28-28h-16V28c0-15.464-12.536-28-28-28z"/></mask><path d="M44 44v1h1v-1h-1zm0 56h1v-1h-1v1zm56 0v-1h-1v1h1zm16-56v1-1zm-16 0h-1v1h1v-1zM45 28C45 13.088 57.088 1 72 1v-2C55.984-1 43 11.984 43 28h2zm0 16V28h-2v16h2zm-17 1h16v-2H28v2zM1 72c0-14.912 12.088-27 27-27v-2C11.984 43-1 55.984-1 72h2zm27 27C13.088 99 1 86.912 1 72h-2c0 16.016 12.984 29 29 29v-2zm16 0H28v2h16v-2zm1 17v-16h-2v16h2zm27 27c-14.912 0-27-12.088-27-27h-2c0 16.016 12.984 29 29 29v-2zm27-27c0 14.912-12.088 27-27 27v2c16.016 0 29-12.984 29-29h-2zm0-16v16h2v-16h-2zm17-1h-16v2h16v-2zm27-27c0 14.912-12.088 27-27 27v2c16.016 0 29-12.984 29-29h-2zm-27-27c14.912 0 27 12.088 27 27h2c0-16.016-12.984-29-29-29v2zm-16 0h16v-2h-16v2zm-1-17v16h2V28h-2zM72 1c14.912 0 27 12.088 27 27h2c0-16.016-12.984-29-29-29v2z" fill="#27B783" mask="url(#a)"/><path d="M49.038 86.081c-6.185 0-11.198-4.95-11.198-11.06S42.853 63.96 49.038 63.96h49.28c-6.185 0-11.2 4.952-11.2 11.061 0 6.11 5.015 11.06 11.202 11.06H49.038zm49.282-6.637c4.327 0 7.84-3.465 7.84-7.743 0-4.276-3.513-7.742-7.84-7.742 4.327 0 7.84 3.465 7.84 7.742 0 4.278-3.513 7.743-7.84 7.743z" stroke="#000" stroke-miterlimit="10" stroke-linecap="round" stroke-linejoin="round"/><path d="M71.998 63.959c-6.182 0-11.199 4.952-11.199 11.061 0 6.11 5.017 11.061 11.2 11.061-6.183 0-11.2-4.95-11.2-11.06S65.816 63.96 72 63.96v0zm0-6.638c0-3.666-3.01-6.637-6.72-6.635-3.71 0-6.716 2.97-6.716 6.635 0 3.665 3.006 6.637 6.716 6.637h6.72v-6.637zm6.72 6.637c3.714 0 6.72-2.972 6.72-6.637 0-3.666-3.01-6.637-6.72-6.637s-6.72 2.97-6.72 6.637v6.637h6.72z" stroke="#000" stroke-miterlimit="10" stroke-linecap="round" stroke-linejoin="round"/></svg>
